assets/img/envelope.svg

<svg xmlns="http://www.w3.org/2000/svg" width="86" height="58" viewBox="0 0 86 58">
    <g fill="#82B331" fill-rule="evenodd">
        <path d="M82.685 49.896a4.277 4.277 0 0 1-4.277 4.277H7.128a4.277 4.277 0 0 1-4.277-4.277V7.128a4.277 4.277 0 0 1 4.277-4.277h71.28a4.277 4.277 0 0 1 4.277 4.277v42.768zM78.408 0H7.128A7.137 7.137 0 0 0 0 7.128v42.768a7.137 7.137 0 0 0 7.128 7.128h71.28a7.137 7.137 0 0 0 7.128-7.128V7.128A7.137 7.137 0 0 0 78.408 0z"/>
        <path d="M79.63 6.394a1.426 1.426 0 0 0-1.956-.488L46.434 24.65a7.107 7.107 0 0 1-7.333 0L7.862 5.906A1.426 1.426 0 0 0 6.394 8.35l31.242 18.744a9.96 9.96 0 0 0 10.264 0L79.142 8.35a1.426 1.426 0 0 0 .488-1.956M6.128 11.405c-.787 0-1.426.638-1.426 1.425v37.066a1.426 1.426 0 0 0 2.852 0V12.83c0-.787-.639-1.425-1.426-1.425M79.408 11.405c-.787 0-1.426.638-1.426 1.425v37.066a1.426 1.426 0 0 0 2.852 0V12.83c0-.787-.639-1.425-1.426-1.425"/>
    </g>
</svg>

<svg xmlns="http://www.w3.org/2000/svg" xmlns:xlink="http://www.w3.org/1999/xlink" width="114" height="99" viewBox="0 0 114 99">
  <defs>
    <clipPath id="clip-path">
      <path id="Path_26" data-name="Path 26" d="M0,0H114V99H0Z" transform="translate(4225 1381)" fill="#fff"/>
    </clipPath>
  </defs>
  <g id="Group_8" data-name="Group 8" transform="translate(-4225 -1381)">
    <g id="Mask_Group_1" data-name="Mask Group 1" clip-path="url(#clip-path)">
      <g id="envelope" transform="translate(4239 1402)">
        <path id="Path_12" data-name="Path 12" d="M82.685,49.9a4.277,4.277,0,0,1-4.277,4.277H7.128A4.277,4.277,0,0,1,2.851,49.9V7.128A4.277,4.277,0,0,1,7.128,2.851h71.28a4.277,4.277,0,0,1,4.277,4.277ZM78.408,0H7.128A7.137,7.137,0,0,0,0,7.128V49.9a7.137,7.137,0,0,0,7.128,7.128h71.28A7.137,7.137,0,0,0,85.536,49.9V7.128A7.137,7.137,0,0,0,78.408,0Z" fill="#82b331" fill-rule="evenodd"/>
        <path id="Path_13" data-name="Path 13" d="M79.63,6.394a1.426,1.426,0,0,0-1.956-.488L46.434,24.65a7.107,7.107,0,0,1-7.333,0L7.862,5.906A1.426,1.426,0,0,0,6.394,8.35L37.636,27.094a9.96,9.96,0,0,0,10.264,0L79.142,8.35a1.426,1.426,0,0,0,.488-1.956M6.128,11.4A1.426,1.426,0,0,0,4.7,12.83V49.9a1.426,1.426,0,0,0,2.852,0V12.83A1.426,1.426,0,0,0,6.128,11.4m73.28,0a1.426,1.426,0,0,0-1.426,1.425V49.9a1.426,1.426,0,1,0,2.852,0V12.83A1.426,1.426,0,0,0,79.408,11.4" fill="#82b331" fill-rule="evenodd"/>
      </g>
    </g>
  </g>
</svg>
